svg/contact/phone_line.svg

<?xml version="1.0" encoding="UTF-8"?>
<svg width="24px" height="24px" viewBox="0 0 24 24" version="1.1" xmlns="http://www.w3.org/2000/svg" xmlns:xlink="http://www.w3.org/1999/xlink">
    <title>phone_line</title>
    <g id="页面-1" stroke="none" stroke-width="1" fill="none" fill-rule="evenodd">
        <g id="Contact" transform="translate(-384.000000, 0.000000)">
            <g id="phone_line" transform="translate(384.000000, 0.000000)">
                 <path d="M24,0 L24,24 L0,24 L0,0 L24,0 Z M12.5934901,23.257841 L12.5819402,23.2595131 L12.5108777,23.2950439 L12.4918791,23.2987469 L12.4918791,23.2987469 L12.4767152,23.2950439 L12.4056548,23.2595131 C12.3958229,23.2563662 12.3870493,23.2590235 12.3821421,23.2649074 L12.3780323,23.275831 L12.360941,23.7031097 L12.3658947,23.7234994 L12.3769048,23.7357139 L12.4804777,23.8096931 L12.4953491,23.8136134 L12.4953491,23.8136134 L12.5071152,23.8096931 L12.6106902,23.7357139 L12.6232938,23.7196733 L12.6232938,23.7196733 L12.6266527,23.7031097 L12.609561,23.275831 C12.6075724,23.2657013 12.6010112,23.2592993 12.5934901,23.257841 L12.5934901,23.257841 Z M12.8583906,23.1452862 L12.8445485,23.1473072 L12.6598443,23.2396597 L12.6498822,23.2499052 L12.6498822,23.2499052 L12.6471943,23.2611114 L12.6650943,23.6906389 L12.6699349,23.7034178 L12.6699349,23.7034178 L12.678386,23.7104931 L12.8793402,23.8032389 C12.8914285,23.8068999 12.9022333,23.8029875 12.9078286,23.7952264 L12.9118235,23.7811639 L12.8776777,23.1665331 C12.8752882,23.1545897 12.8674102,23.1470016 12.8583906,23.1452862 L12.8583906,23.1452862 Z M12.1430473,23.1473072 C12.1332178,23.1423925 12.1221763,23.1452606 12.1156365,23.1525954 L12.1099173,23.1665331 L12.0757714,23.7811639 C12.0751323,23.7926639 12.0828099,23.8018602 12.0926481,23.8045676 L12.108256,23.8032389 L12.3092106,23.7104931 L12.3186497,23.7024347 L12.3186497,23.7024347 L12.3225043,23.6906389 L12.340401,23.2611114 L12.337245,23.2485176 L12.337245,23.2485176 L12.3277531,23.2396597 L12.1430473,23.1473072 Z" id="MingCute" fill-rule="nonzero"></path>
                <path d="M8.17155,15.8285 C12.0174,19.6743 15.5802,20.0954 16.6259,20.1339 C17.8904,20.1804 19.1802,19.1483 19.7376,18.0906 C18.848,17.0465 17.6892,16.2367 16.4195,15.3587 C15.6712,16.107 14.7484,17.4973 13.5186,16.9999 C12.8203,16.7175 11.0941,15.9226 9.58577,14.4143 C8.07739,12.9059 7.28253,11.1797 7.00013,10.4815 C6.50231,9.25062 7.89573,8.32613 8.64459,7.57727 C7.76704,6.28658 6.97058,5.09819 5.92867,4.25321 C4.85725,4.8137 3.81906,6.09371 3.86617,7.37413 C3.90465,8.41979 4.32575,11.9827 8.17155,15.8285 Z M16.5523,22.1325 C15.1114,22.0795 11.0307,21.5161 6.75734,17.2427 C2.48395,12.9693 1.92055,8.88863 1.86753,7.44768 C1.78673,5.25222 3.46853,3.11903 5.41214,2.28606 C5.8682,2.0906 6.42059,2.12637 6.85727,2.4449 C8.4649,3.61757 9.57405,5.39532 10.5266,6.78732 C10.9324,7.38038 10.8654,8.18491 10.3502,8.70013 L8.99377,10.0565 C9.30858,10.7518 9.95085,11.9509 11,13 C12.0491,14.0492 13.2482,14.6914 13.9435,15.0063 L15.2992,13.6505 C15.8149,13.1349 16.6229,13.0669 17.2173,13.4787 C18.6373,14.4625 20.305,15.556 21.521,17.1133 C21.8625,17.5507 21.9133,18.1227 21.7096,18.5981 C20.8728,20.5507 18.7552,22.2136 16.5523,22.1325 Z" id="形状" fill="#09244B"></path>
            </g>
        </g>
    </g>
</svg>

<svg xmlns="http://www.w3.org/2000/svg" width="24" height="24"><g fill="none" fill-rule="evenodd"><path d="M24 0v24H0V0h24ZM12.593 23.258l-.011.002-.071.035-.02.004-.014-.004-.071-.035c-.01-.004-.019-.001-.024.005l-.004.01-.017.428.005.02.01.013.104.074.015.004.012-.004.104-.074.012-.016.004-.017-.017-.427c-.002-.01-.009-.017-.017-.018Zm.265-.113-.013.002-.185.093-.01.01-.003.011.018.43.005.012.008.007.201.093c.012.004.023 0 .029-.008l.004-.014-.034-.614c-.003-.012-.01-.02-.02-.022Zm-.715.002a.023.023 0 0 0-.027.006l-.006.014-.034.614c0 .012.007.02.017.024l.015-.002.201-.093.01-.008.004-.011.017-.43-.003-.012-.01-.01-.184-.092Z"/><path fill="#09244B" d="M8.172 15.829c3.845 3.845 7.408 4.266 8.454 4.305 1.264.046 2.554-.986 3.112-2.043-.89-1.044-2.049-1.854-3.318-2.732-.749.748-1.672 2.138-2.901 1.64-.699-.281-2.425-1.076-3.933-2.585C8.077 12.906 7.283 11.18 7 10.482c-.498-1.231.896-2.156 1.645-2.905-.878-1.29-1.674-2.479-2.716-3.324-1.072.56-2.11 1.84-2.063 3.121.039 1.046.46 4.609 4.306 8.455Zm8.38 6.304c-1.44-.053-5.521-.617-9.795-4.89-4.273-4.274-4.836-8.354-4.89-9.795-.08-2.196 1.602-4.329 3.545-5.162a1.47 1.47 0 0 1 1.445.159c1.608 1.173 2.717 2.95 3.67 4.342A1.504 1.504 0 0 1 10.35 8.7l-1.356 1.357C9.309 10.752 9.95 11.95 11 13c1.05 1.05 2.248 1.691 2.944 2.006l1.355-1.356a1.503 1.503 0 0 1 1.918-.171c1.42.984 3.088 2.077 4.304 3.634a1.47 1.47 0 0 1 .189 1.485c-.837 1.953-2.955 3.616-5.158 3.535Z"/></g></svg>
